X:1
T:Allein Gott
T:Deutsch Evangelisch Messze, 1539
T:Allein Gott
T:Public Domain
C:Deutsch Evangelisch Messze, 1539
Z:Public Domain
%%score ( 1 2 ) ( 3 4 )
L:1/8
M:4/4
K:F
V:1 treble 
V:2 treble 
V:3 bass 
V:4 bass 
V:1
 (FG) | [FA]2 [FB]2 [Ec]2 (DE) | [FA]2 [EG]2 [FA]2 [FA]2 | [FA]2 (GA) [DB]2 [DG]2 | %4
 F2 [EG]2 [CF]2 [CF]2 | [FA]2 [FB]2 [Ec]2 (DE) | [FA]2 [EG]2 [FA]2 [FA]2 | [FA]2 (GA) [DB]2 [DG]2 | %8
 F2 [EG]2 [CF]2 [CF]2 | [DF]2 (GA) [DB]2 [DA]2 | (B,C) [D^F]2 [DG]2 [EG]2 | %11
 [FA]2 [FB]2 [Ec]2 [DB]2 | [DA]2 [DG]2 [^CA]2 [DF]2 | [DG]2 (DE) [FA]2 [DG]2 | (F2 E2) [CF]2 |] %15
V:2
 C2 | x6 B2 | x8 | x2 D2 x4 | F2 x6 | x6 B2 | x8 | x2 D2 x4 | F2 x6 | x2 D2 x4 | G2 x6 | x8 | x8 | %13
 x2 B2 x4 | C4 x2 |] %15
V:3
 (A,B,) | (F,E,) [D,B,]2 (B,A,) [G,,B,]2 | (A,,B,,) [C,C]2 [F,C]2 [F,C]2 | %3
 (D,C,)(B,,A,,) [G,,G,]2 [B,,G,]2 | A,2 (CB,) [F,A,]2 [F,A,]2 | [F,C]2 [D,B,]2 [C,G,]2 [G,,B,]2 | %6
 (A,,B,,) [C,C]2 [F,C]2 [F,C]2 | (D,C,)(B,,A,,) [G,,G,]2 [B,,G,]2 | (A,2 CB,) [F,A,]2 [F,A,]2 | %9
 [D,A,]2 (B,,A,,) [G,,B,]2 [D,^F,]2 | [_E,G,]2 [D,A,]2 [G,B,]2 [C,C]2 | %11
 [F,C]2 [D,F,]2 [C,G,]2 [G,,G,]2 | [D,F,]2 [B,,G,]2 [A,,E,]2 [D,F,]2 | %13
 [B,,B,]2 [G,,B,]2 [A,,C]2 [B,,B,]2 | (A,2 G,B,) [F,,A,]2 |] %15
V:4
 F,2 | C2 x C,2 x3 | C2 x6 | D2 G,2 x4 | C,4 x4 | x8 | C2 x6 | D2 G,2 x4 | C,4 x4 | x2 B,2 x4 | %10
 x8 | x8 | x8 | x8 | C,4 x2 |] %15

